public/images/home-api.svg

<svg width="89" height="89" viewBox="0 0 89 89" fill="none" xmlns="http://www.w3.org/2000/svg">
<g id="home-api">
<g id="cloud">
<path id="Vector" d="M62.62 38.8018C61.29 32.0618 55.35 26.9918 48.22 26.9918C42.56 26.9918 37.64 30.2018 35.19 34.8818C29.29 35.5318 24.71 40.5018 24.71 46.5718C24.71 53.0618 29.97 58.3218 36.46 58.3218H61.92C67.33 58.3218 71.71 53.9418 71.71 48.5318C71.71 43.1218 67.69 39.1718 62.6 38.7918L62.62 38.8018Z" fill="#AFE0DD"/>
</g>
<path id="Vector_2" d="M73.79 75.6618H69.78C69.23 75.6618 68.78 75.2118 68.78 74.6618C68.78 74.1118 69.23 73.6618 69.78 73.6618H73.75C74.3 73.6618 74.77 74.1118 74.77 74.6618C74.77 75.2118 74.35 75.6618 73.79 75.6618ZM61.83 75.6618H57.86C57.31 75.6618 56.86 75.2118 56.86 74.6618C56.86 74.1118 57.31 73.6618 57.86 73.6618H61.83C62.38 73.6618 62.83 74.1118 62.83 74.6618C62.83 75.2118 62.38 75.6618 61.83 75.6618ZM49.93 75.6618H45.96C45.41 75.6618 44.96 75.2118 44.96 74.6618C44.96 74.1118 45.41 73.6618 45.96 73.6618H49.93C50.48 73.6618 50.93 74.1118 50.93 74.6618C50.93 75.2118 50.48 75.6618 49.93 75.6618ZM38.02 75.6618H34.05C33.5 75.6618 33.05 75.2118 33.05 74.6618C33.05 74.1118 33.5 73.6618 34.05 73.6618H38.02C38.57 73.6618 39.02 74.1118 39.02 74.6618C39.02 75.2118 38.57 75.6618 38.02 75.6618ZM26.11 75.6618H22.14C21.59 75.6618 21.14 75.2118 21.14 74.6618C21.14 74.1118 21.59 73.6618 22.14 73.6618H26.11C26.66 73.6618 27.11 74.1118 27.11 74.6618C27.11 75.2118 26.66 75.6618 26.11 75.6618ZM14.22 75.5218C14.13 75.5218 14.04 75.5118 13.95 75.4818C12.31 75.0218 11.03 73.7118 10.59 72.0718C10.45 71.5418 10.77 70.9918 11.3 70.8518C11.83 70.7118 12.38 71.0318 12.52 71.5618C12.78 72.5218 13.53 73.2918 14.49 73.5618C15.02 73.7118 15.33 74.2618 15.18 74.7918C15.06 75.2318 14.65 75.5218 14.22 75.5218ZM77.58 69.8718C77.03 69.8718 76.58 69.4218 76.58 68.8718V64.9018C76.58 64.3518 77.03 63.9018 77.58 63.9018C78.13 63.9018 78.58 64.3518 78.58 64.9018V68.8718C78.58 69.4218 78.13 69.8718 77.58 69.8718ZM11.42 64.8918C10.87 64.8918 10.42 64.4418 10.42 63.8918V59.9218C10.42 59.3718 10.87 58.9218 11.42 58.9218C11.97 58.9218 12.42 59.3718 12.42 59.9218V63.8918C12.42 64.4418 11.97 64.8918 11.42 64.8918ZM77.58 57.9618C77.03 57.9618 76.58 57.5118 76.58 56.9618V52.9918C76.58 52.4418 77.03 51.9918 77.58 51.9918C78.13 51.9918 78.58 52.4418 78.58 52.9918V56.9618C78.58 57.5118 78.13 57.9618 77.58 57.9618ZM11.42 52.9818C10.87 52.9818 10.42 52.5318 10.42 51.9818V48.0118C10.42 47.4618 10.87 47.0118 11.42 47.0118C11.97 47.0118 12.42 47.4618 12.42 48.0118V51.9818C12.42 52.5318 11.97 52.9818 11.42 52.9818ZM77.58 46.0618C77.03 46.0618 76.58 45.6118 76.58 45.0618V41.0918C76.58 40.5418 77.03 40.0918 77.58 40.0918C78.13 40.0918 78.58 40.5418 78.58 41.0918V45.0618C78.58 45.6118 78.13 46.0618 77.58 46.0618ZM11.42 41.0818C10.87 41.0818 10.42 40.6318 10.42 40.0818V36.1118C10.42 35.5618 10.87 35.1118 11.42 35.1118C11.97 35.1118 12.42 35.5618 12.42 36.1118V40.0818C12.42 40.6318 11.97 41.0818 11.42 41.0818ZM77.58 34.1518C77.03 34.1518 76.58 33.7018 76.58 33.1518V29.1818C76.58 28.6318 77.03 28.1818 77.58 28.1818C78.13 28.1818 78.58 28.6318 78.58 29.1818V33.1518C78.58 33.7018 78.13 34.1518 77.58 34.1518ZM11.42 29.1718C10.87 29.1718 10.42 28.7218 10.42 28.1718V24.2018C10.42 23.6518 10.87 23.2018 11.42 23.2018C11.97 23.2018 12.42 23.6518 12.42 24.2018V28.1718C12.42 28.7218 11.97 29.1718 11.42 29.1718ZM77.44 22.2518C77 22.2518 76.6 21.9618 76.48 21.5118C76.22 20.5518 75.46 19.7918 74.5 19.5218C73.97 19.3718 73.65 18.8218 73.8 18.2918C73.95 17.7618 74.5 17.4418 75.03 17.5918C76.67 18.0418 77.96 19.3418 78.41 20.9818C78.56 21.5118 78.24 22.0618 77.71 22.2118C77.62 22.2318 77.53 22.2518 77.45 22.2518H77.44ZM66.84 19.4318H62.87C62.32 19.4318 61.87 18.9818 61.87 18.4318C61.87 17.8818 62.32 17.4318 62.87 17.4318H66.84C67.39 17.4318 67.84 17.8818 67.84 18.4318C67.84 18.9818 67.39 19.4318 66.84 19.4318ZM54.93 19.4318H50.96C50.41 19.4318 49.96 18.9818 49.96 18.4318C49.96 17.8818 50.41 17.4318 50.96 17.4318H54.93C55.48 17.4318 55.93 17.8818 55.93 18.4318C55.93 18.9818 55.48 19.4318 54.93 19.4318ZM43.02 19.4318H39.05C38.5 19.4318 38.05 18.9818 38.05 18.4318C38.05 17.8818 38.5 17.4318 39.05 17.4318H43.02C43.57 17.4318 44.02 17.8818 44.02 18.4318C44.02 18.9818 43.57 19.4318 43.02 19.4318ZM31.11 19.4318H27.14C26.59 19.4318 26.14 18.9818 26.14 18.4318C26.14 17.8818 26.59 17.4318 27.14 17.4318H31.11C31.66 17.4318 32.11 17.8818 32.11 18.4318C32.11 18.9818 31.66 19.4318 31.11 19.4318ZM19.2 19.4318H15.25C15.25 19.4318 15.21 19.4318 15.19 19.4318C14.65 19.4118 14.22 18.9718 14.22 18.4318C14.22 17.8818 14.67 17.4318 15.22 17.4318C15.23 17.4318 15.25 17.4318 15.26 17.4318H19.19C19.74 17.4318 20.19 17.8818 20.19 18.4318C20.19 18.9818 19.74 19.4318 19.19 19.4318H19.2Z" fill="#13706D"/>
<g id="cloud_2">
<g id="Group">
<path id="Vector_3" d="M59.17 26.9718C57.84 20.2318 51.9 15.1618 44.77 15.1618C39.11 15.1618 34.19 18.3718 31.74 23.0518C25.84 23.7018 21.26 28.6718 21.26 34.7418C21.26 41.2318 26.52 46.4918 33.01 46.4918H58.47C63.88 46.4918 68.26 42.1118 68.26 36.7018C68.26 31.2918 64.24 27.3418 59.15 26.9618L59.17 26.9718Z" fill="white"/>
<path id="Vector_4" d="M58.49 47.5018H33.03C26 47.5018 20.28 41.7818 20.28 34.7518C20.28 28.4018 24.91 23.0718 31.12 22.1318C33.91 17.2018 39.1 14.1618 44.78 14.1618C52 14.1618 58.28 19.1218 60 26.0518C65.27 26.8018 69.29 31.3518 69.29 36.7018C69.29 42.6518 64.45 47.4918 58.5 47.4918L58.49 47.5018ZM44.77 16.1618C39.66 16.1618 35 18.9818 32.63 23.5218C32.48 23.8118 32.18 24.0118 31.85 24.0518C26.38 24.6518 22.26 29.2518 22.26 34.7518C22.26 40.6818 27.08 45.5018 33.01 45.5018H58.47C63.32 45.5018 67.26 41.5518 67.26 36.7118C67.26 32.1518 63.67 28.3118 59.08 27.9718C58.63 27.9418 58.26 27.6118 58.17 27.1718C56.91 20.7918 51.27 16.1618 44.75 16.1618H44.77Z" fill="#13706D"/>
</g>
</g>
<g id="refresh">
<path id="Vector_5" fillRule="evenodd" clipRule="evenodd" d="M44.79 21.3818C45.18 20.9918 45.81 20.9918 46.2 21.3818L49.2 24.3818C49.59 24.7718 49.59 25.4018 49.2 25.7918L46.2 28.7918C45.81 29.1818 45.18 29.1818 44.79 28.7918C44.4 28.4018 44.4 27.7718 44.79 27.3818L46.08 26.0918H44.49C40.94 26.0918 37.99 29.0418 37.99 32.5918C37.99 36.1418 40.94 39.0918 44.49 39.0918C48.04 39.0918 50.99 36.1418 50.99 32.5918C50.99 32.0418 51.44 31.5918 51.99 31.5918C52.54 31.5918 52.99 32.0418 52.99 32.5918C52.99 37.2418 49.14 41.0918 44.49 41.0918C39.84 41.0918 35.99 37.2418 35.99 32.5918C35.99 27.9418 39.84 24.0918 44.49 24.0918H46.08L44.79 22.8018C44.4 22.4118 44.4 21.7818 44.79 21.3918V21.3818Z" fill="#13706D"/>
</g>
<path id="Vector_6" d="M66.11 63.6418H44.96C44.0598 63.6418 43.33 64.3716 43.33 65.2718V65.2818C43.33 66.182 44.0598 66.9118 44.96 66.9118H66.11C67.0102 66.9118 67.74 66.182 67.74 65.2818V65.2718C67.74 64.3716 67.0102 63.6418 66.11 63.6418Z" fill="#AFE0DD"/>
<path id="Vector_7" d="M37.95 63.6418H22.9C21.9998 63.6418 21.27 64.3716 21.27 65.2718V65.2818C21.27 66.182 21.9998 66.9118 22.9 66.9118H37.95C38.8502 66.9118 39.58 66.182 39.58 65.2818V65.2718C39.58 64.3716 38.8502 63.6418 37.95 63.6418Z" fill="#13706D"/>
</g>
</svg>

<svg xmlns="http://www.w3.org/2000/svg" width="89" height="89" fill="none"><path fill="#AFE0DD" d="M62.62 38.802c-1.33-6.74-7.27-11.81-14.4-11.81-5.66 0-10.58 3.21-13.03 7.89-5.9.65-10.48 5.62-10.48 11.69 0 6.49 5.26 11.75 11.75 11.75h25.46c5.41 0 9.79-4.38 9.79-9.79s-4.02-9.36-9.11-9.74z"/><path fill="#13706D" d="M73.79 75.662h-4.01c-.55 0-1-.45-1-1s.45-1 1-1h3.97c.55 0 1.02.45 1.02 1s-.42 1-.98 1m-11.96 0h-3.97c-.55 0-1-.45-1-1s.45-1 1-1h3.97c.55 0 1 .45 1 1s-.45 1-1 1m-11.9 0h-3.97c-.55 0-1-.45-1-1s.45-1 1-1h3.97c.55 0 1 .45 1 1s-.45 1-1 1m-11.91 0h-3.97c-.55 0-1-.45-1-1s.45-1 1-1h3.97c.55 0 1 .45 1 1s-.45 1-1 1m-11.91 0h-3.97c-.55 0-1-.45-1-1s.45-1 1-1h3.97c.55 0 1 .45 1 1s-.45 1-1 1m-11.89-.14c-.09 0-.18-.01-.27-.04a4.86 4.86 0 0 1-3.36-3.41c-.14-.53.18-1.08.71-1.22s1.08.18 1.22.71c.26.96 1.01 1.73 1.97 2 .53.15.84.7.69 1.23-.12.44-.53.73-.96.73m63.36-5.65c-.55 0-1-.45-1-1v-3.97c0-.55.45-1 1-1s1 .45 1 1v3.97c0 .55-.45 1-1 1m-66.16-4.98c-.55 0-1-.45-1-1v-3.97c0-.55.45-1 1-1s1 .45 1 1v3.97c0 .55-.45 1-1 1m66.16-6.93c-.55 0-1-.45-1-1v-3.97c0-.55.45-1 1-1s1 .45 1 1v3.97c0 .55-.45 1-1 1m-66.16-4.98c-.55 0-1-.45-1-1v-3.97c0-.55.45-1 1-1s1 .45 1 1v3.97c0 .55-.45 1-1 1m66.16-6.92c-.55 0-1-.45-1-1v-3.97c0-.55.45-1 1-1s1 .45 1 1v3.97c0 .55-.45 1-1 1m-66.16-4.98c-.55 0-1-.45-1-1v-3.97c0-.55.45-1 1-1s1 .45 1 1v3.97c0 .55-.45 1-1 1m66.16-6.93c-.55 0-1-.45-1-1v-3.97c0-.55.45-1 1-1s1 .45 1 1v3.97c0 .55-.45 1-1 1m-66.16-4.98c-.55 0-1-.45-1-1v-3.97c0-.55.45-1 1-1s1 .45 1 1v3.97c0 .55-.45 1-1 1m66.02-6.92a.99.99 0 0 1-.96-.74 2.86 2.86 0 0 0-1.98-1.99c-.53-.15-.85-.7-.7-1.23s.7-.85 1.23-.7c1.64.45 2.93 1.75 3.38 3.39.15.53-.17 1.08-.7 1.23-.09.02-.18.04-.26.04zm-10.6-2.82h-3.97c-.55 0-1-.45-1-1s.45-1 1-1h3.97c.55 0 1 .45 1 1s-.45 1-1 1m-11.91 0h-3.97c-.55 0-1-.45-1-1s.45-1 1-1h3.97c.55 0 1 .45 1 1s-.45 1-1 1m-11.91 0h-3.97c-.55 0-1-.45-1-1s.45-1 1-1h3.97c.55 0 1 .45 1 1s-.45 1-1 1m-11.91 0h-3.97c-.55 0-1-.45-1-1s.45-1 1-1h3.97c.55 0 1 .45 1 1s-.45 1-1 1m-11.91 0h-4.01c-.54-.02-.97-.46-.97-1 0-.55.45-1 1-1h3.97c.55 0 1 .45 1 1s-.45 1-1 1z"/><path fill="#fff" d="M59.17 26.972c-1.33-6.74-7.27-11.81-14.4-11.81-5.66 0-10.58 3.21-13.03 7.89-5.9.65-10.48 5.62-10.48 11.69 0 6.49 5.26 11.75 11.75 11.75h25.46c5.41 0 9.79-4.38 9.79-9.79s-4.02-9.36-9.11-9.74z"/><path fill="#13706D" d="M58.49 47.502H33.03c-7.03 0-12.75-5.72-12.75-12.75 0-6.35 4.63-11.68 10.84-12.62a15.66 15.66 0 0 1 13.66-7.97c7.22 0 13.5 4.96 15.22 11.89 5.27.75 9.29 5.3 9.29 10.65 0 5.95-4.84 10.79-10.79 10.79zm-13.72-31.34c-5.11 0-9.77 2.82-12.14 7.36-.15.29-.45.49-.78.53-5.47.6-9.59 5.2-9.59 10.7 0 5.93 4.82 10.75 10.75 10.75h25.46c4.85 0 8.79-3.95 8.79-8.79 0-4.56-3.59-8.4-8.18-8.74a1 1 0 0 1-.91-.8c-1.26-6.38-6.9-11.01-13.42-11.01z"/><path fill="#13706D" d="M44.79 21.382a.996.996 0 0 1 1.41 0l3 3c.39.39.39 1.02 0 1.41l-3 3a.996.996 0 1 1-1.41-1.41l1.29-1.29h-1.59c-3.55 0-6.5 2.95-6.5 6.5s2.95 6.5 6.5 6.5 6.5-2.95 6.5-6.5c0-.55.45-1 1-1s1 .45 1 1c0 4.65-3.85 8.5-8.5 8.5s-8.5-3.85-8.5-8.5 3.85-8.5 8.5-8.5h1.59l-1.29-1.29a.996.996 0 0 1 0-1.41z"/><path fill="#AFE0DD" d="M66.11 63.642H44.96c-.9 0-1.63.73-1.63 1.63v.01c0 .9.73 1.63 1.63 1.63h21.15c.9 0 1.63-.73 1.63-1.63v-.01c0-.9-.73-1.63-1.63-1.63"/><path fill="#13706D" d="M37.95 63.642H22.9c-.9 0-1.63.73-1.63 1.63v.01c0 .9.73 1.63 1.63 1.63h15.05c.9 0 1.63-.73 1.63-1.63v-.01c0-.9-.73-1.63-1.63-1.63"/></svg>
